X:1
T:Cosi dicea
T:Cosi dicea
T:Francesca Caccini
T:Source : Primo libro delle Musische a 1 e 2 voci---Firenze---Z.Pigoni---1618. Editor : André Vierendeels (28/08/15).
T:Notes : Original clefs : C1, F4 Figures in BC are notated in original print See also part 1 :"Che i cosei", p 2 : "Questa e colei" and p 3 : "Pregiato Deus" 
T:Sonetto 2, part 4
C:Francesca Caccini
%%score 1 2
L:1/8
Q:1/4=120
M:4/4
K:F
V:1 treble nm="Soprano" snm="S"
V:2 bass nm="BC" snm="BC"
V:1
 z2 A2 A3 B | c4 z ccd- | d2 c/Tc/B/A/ B>c TA>G | F/E/F/4D/4E/4F/4 G/A/B/c/ d/Tc/c/c/ cB | %4
w: Co- si di-|cea la for- tu-|* na- * * * * * * *|* * * * * * * * * * * * * * * ta|
 c4 B2 z d | A3 B c4 | cGGA B4- | B2 A/G/^F G2 A2 | B/A/A A>G A4 | z2 d3 c B2 | A3 G G4- | %11
w: Cor- te di|Pa- ra- di-|so in quel fe- li-|* ce _ _ gior- *|* * * * * no,|ch'ell' a- per-|se'a Ma- ria|
 G2 G2 A>B c2- | c2 G2 G4 | F8 | z2 AA B>c B>c | dc/B/ A>B TF2 FG | A4 =B>c d/Tc/c/B/ | %17
w: _ l'ec- cel- * *|* se por-|te,|ch'ell' a- per- * * *|* * * * * * se'a Ma-|ria l'ec- * * * * *|
 c4- cB/A/ G/F/G/4E/4F/4G/4 | A/G/A/B/ TAG/F/ E/D/E/F/ G/A/B/c/ | d3 G G4 | F8 |] %21
w: cel- * * * * * * * * *||* se por-|te.|
V:2
"^-natural" F,4 D,4 |"^10""^6" C,2 C,2 A,,4 | B,,B, ^F,2 G,4 | D,2 _E,2 G,4 | %4
"^4""^10" F,2 F,,2 B,,2 B,,2 |"^-natural""^6" TD,4 A,,4 | C,4 G,,4 | D,4 _E,4 |"^6" _E,4 D,2 D2 | %9
"^#6""^4" C2 B,2 A,2 G,2 |"^#3""^6" D,2 D,2 E,2 D,C, |"^6" =B,,2 C,2 A,,4- | %12
"^11        10" A,,2 B,,2 C,2 C,2 | F,,4 F,2 E,2 |"^b" D,2 C,2 B,,2 A,,2 | G,,4 D,2 E,2 | F,4 G,4 | %17
"^6" A,2 G,F, E,4 | F,4 C,4 |"^11       10" =B,,4 C,2 C,2 | F,,8 |] %21

